Suru++-Ubuntu/apps/symbolic/trophy-gold-symbolic.svg

<svg width="16" height="16" version="1.1" viewBox="-2 -2 16 16" xmlns="http://www.w3.org/2000/svg">
 <path d="m10.6416 0.9c0.1446-1.39965 0.1584-2.4 0.1584-2.4h-9.59985s0.01365 1.00035 0.1584 2.4h-2.85855v0.45c0 5.5488 4.0263 6.9519 5.36985 7.26525 0.4719 0.4989 1.0269 0.84045 1.68015 0.94815v1.0866c0 1.05-2.25 1.95-3.15 1.95-0.2484 0-0.45 0.2016-0.45 0.45s0.2016 0.45 0.45 0.45h7.2c0.2484 0 0.45-0.2016 0.45-0.45s-0.2016-0.45-0.45-0.45c-0.9 0-3.15-0.9-3.15-1.95v-1.0866c0.65325-0.10785 1.20855-0.4491 1.68045-0.94815 1.34385-0.31365 5.36955-1.71675 5.36955-7.26525v-0.45h-2.8584zm-11.2317 0.9h2.05455c0.2397 1.8147 0.69555 4.0134 1.5603 5.6142-1.42335-0.5937-3.4563-2.06025-3.61485-5.6142zm7.44945 0.6153 0.5313 1.6347-1.39065-1.01025-1.39065 1.01025 0.53115-1.6347-1.3905-1.01025h1.71885l0.53115-1.6347 0.53115 1.6347h1.71885zm2.11605 4.9989c0.8649-1.6008 1.32075-3.79965 1.56-5.6142h2.05455c-0.1584 3.55395-2.19135 5.02065-3.61455 5.6142z" style="fill:#808080"/>
</svg>

<svg xmlns="http://www.w3.org/2000/svg" width="16" height="16" version="1.1" viewBox="-2 -2 16 16" xml:space="preserve">
 <path d="M 10.6416,0.9 C 10.7862,-0.49965 10.8,-1.5 10.8,-1.5 H 1.20015 c 0,0 0.01365,1.00035 0.1584,2.4 C 0.3528,0.9 -1.5,0.9 -1.5,0.9 v 0.45 c 0,5.5488 4.0263,6.9519 5.36985,7.26525 C 4.34175,9.11415 4.89675,9.4557 5.55,9.5634 V 10.65 c 0,1.05 -2.25,1.95 -3.15,1.95 -0.2484,0 -0.45,0.2016 -0.45,0.45 0,0.2484 0.2016,0.45 0.45,0.45 H 6 9.6 c 0.2484,0 0.45,-0.2016 0.45,-0.45 0,-0.2484 -0.2016,-0.45 -0.45,-0.45 -0.9,0 -3.15,-0.9 -3.15,-1.95 V 9.5634 C 7.10325,9.45555 7.65855,9.1143 8.13045,8.61525 9.4743,8.3016 13.5,6.8985 13.5,1.35 V 0.9 c 0,0 -2.06565,0 -2.8584,0 z M -0.5901,1.8 H 1.46445 C 1.70415,3.6147 2.16,5.8134 3.02475,7.4142 1.6014,6.8205 -0.43155,5.35395 -0.5901,1.8 Z M 6.85935,2.4153 7.39065,4.05 6,3.03975 4.60935,4.05 5.1405,2.4153 3.75,1.40505 H 5.46885 L 6,-0.22965 6.53115,1.40505 H 8.25 Z M 8.9754,7.4142 C 9.8403,5.8134 10.29615,3.61455 10.5354,1.8 h 2.05455 C 12.43155,5.35395 10.3986,6.82065 8.9754,7.4142 Z" style="fill:#808080"/>
</svg>
